X: 1
T:March in Bluebeard(secundo). HSJJ.064
M:2/4
L:1/8
S:HSJ Jackson,Wyresdale,Lancs.1823
R:March
O:England
A:Lancashire
H:1823
Z:Chris Partington.
K:D
f>edc|B2F2|ddcd|"sic"cc>cc|f>edc|f2e2|ddcc|d2d2|!|cccB|c2d2|c>cBc|G>GGG|
c>Bcd|cc>cc|.c.B.A.G|FF>FF|!f>edc|d2e2|d/c/d/e/ fd|cc>cc|f>edc|d2e2|ddAA
|
dd>dd:|]
